src/actions/16/edit-clear-history.svg

<svg xmlns="http://www.w3.org/2000/svg" viewBox="0 0 16 16">
  <defs id="defs3051">
    <style type="text/css" id="current-color-scheme">
      .ColorScheme-Text {
        color:#363636;
      }
      </style>
  </defs>
 <path style="fill:currentColor;fill-opacity:1;stroke:none" 
     d="M 2.5 2 C 2.2238576 2 2 2.2238576 2 2.5 C 2 2.7761424 2.2238576 3 2.5 3 C 2.7761424 3 3 2.7761424 3 2.5 C 3 2.2238576 2.7761424 2 2.5 2 z M 5.5 2 C 5.2238576 2 5 2.2238576 5 2.5 C 5 2.7761424 5.2238576 3 5.5 3 C 5.7761424 3 6 2.7761424 6 2.5 C 6 2.2238576 5.7761424 2 5.5 2 z M 13.160156 2 L 9.7382812 6.3105469 C 9.062765 6.0537156 8.2111082 5.9824498 7 6 C 5.6442244 7.2930815 4.7507597 7.7091991 2 8 L 2 9 C 4.1137135 12.371692 5.4745763 14 9 14 L 10 14 C 11.073961 12.616195 11.627119 11.610169 12 10 L 12 9 C 11.558507 8.0093924 11.158004 7.334604 10.673828 6.8789062 L 14 2.6601562 L 13.160156 2 z M 4 4 C 3.4477153 4 3 4.4477153 3 5 C 3 5.5522847 3.4477153 6 4 6 C 4.5522847 6 5 5.5522847 5 5 C 5 4.4477153 4.5522847 4 4 4 z M 7.5292969 7.1015625 C 9.6322903 7.2655765 10.168585 8.0162663 10.857422 9.6992188 C 10.284594 11.24586 10.385403 11.602833 9.2734375 12.96875 C 6.1355922 12.694915 5.052768 11.540538 3.3261719 8.8300781 C 5.122354 8.7567482 6.1084274 8.1046285 7.5292969 7.1015625 z "
     class="ColorScheme-Text"
     />
</svg>

<svg xmlns="http://www.w3.org/2000/svg" viewBox="0 0 16 16">
    <path d="M2.5 2a.5.5 0 1 0 0 1 .5.5 0 0 0 0-1zm3 0a.5.5 0 1 0 0 1 .5.5 0 0 0 0-1zm7.66 0L9.738 6.31C9.063 6.055 8.211 5.983 7 6 5.644 7.293 4.75 7.71 2 8v1c2.114 3.372 3.475 5 7 5h1c1.074-1.384 1.627-2.39 2-4V9c-.441-.99-.842-1.665-1.326-2.121L14 2.66 13.16 2zM4 4a1 1 0 1 0 0 2 1 1 0 0 0 0-2zm3.53 3.102c2.102.164 2.639.914 3.327 2.597-.572 1.547-.472 1.904-1.584 3.27-3.137-.274-4.22-1.428-5.947-4.139 1.796-.073 2.782-.725 4.203-1.728z" style="fill:currentColor;fill-opacity:1;stroke:none;color:#050505;opacity:.7"/>
</svg>
